X: 8550
T: Cricket's March Over The Salt Box, The
R: jig
M: 6/8
K: Dmajor
|:A|DED FED|FzA d2A|Bcd A2F|E2D B3|
DED FED|FzA d2A|Bcd A2F|E2D D2:|
|:B|AFF FEF|dzB BAB|efB BAf|azf fef|
gfe fed|efe dzA|Bcd A2F|E2D D2:|

